!!!!SEGMENT: pl-cz--d-ii-29--006_elsner-jozef--msza-f-op-35-sanctus.krn
!!!cenid: 18xx:184
!!!COM: Elsner, Józef
!!!COM-rismID: pe30000957
!!!CDT: 1769/06/01-1854/04/18
!!!CNT: Polish
!!!OPR: Msza F op. 35
!!!OTL: Sanctus
!!!OMV: 006
!!!PDT:
!!!AGN: Sacred; Mass
!!!SMS-siglum: PL-CZ
!!!SMS-shelfmark: D II-29
!!!SMS-shelfwork: 001-006 M
!!!NIFC-rismSourceID: 1001127151
!!!NIFC-rismChildID: 1001127151
!!!NIFC-islandoraID:
!!!URL-pdf-islandora:
!!!URL-scan:
!!!ONB-nifc: UWAGA: części Mszy: Kyrie, Gloria, Graduale, Credo, Offertorium, Sanctus, Agnus Dei
!!!AIN: 1 alto 1 bass 1 organ 1 soprn 1 tenor
!!!OMD:
!!!OMD-mod: Andante
!!!key: F
**kern	**kern	**kern	**text	**mod-text	**text	**mod-text	**text	**mod-text	**text	**mod-text	**kern	**text	**mod-text	**text	**mod-text	**text	**mod-text	**text	**mod-text	**kern	**text	**mod-text	**text	**mod-text	**text	**mod-text	**text	**mod-text	**kern	**text	**mod-text	**text	**mod-text	**text	**mod-text	**text	**mod-text
*part5	*part5	*part4	*part4	*part4	*part4	*part4	*part4	*part4	*part4	*part4	*part3	*part3	*part3	*part3	*part3	*part3	*part3	*part3	*part3	*part2	*part2	*part2	*part2	*part2	*part2	*part2	*part2	*part2	*part1	*part1	*part1	*part1	*part1	*part1	*part1	*part1	*part1
*staff6	*staff5	*staff4	*staff4	*staff4	*staff4	*staff4	*staff4	*staff4	*staff4	*staff4	*staff3	*staff3	*staff3	*staff3	*staff3	*staff3	*staff3	*staff3	*staff3	*staff2	*staff2	*staff2	*staff2	*staff2	*staff2	*staff2	*staff2	*staff2	*staff1	*staff1	*staff1	*staff1	*staff1	*staff1	*staff1	*staff1	*staff1
*I"ORGANO	*I"ORGANO	*I"BASSO	*	*	*	*	*	*	*	*	*I"TENOR	*	*	*	*	*	*	*	*	*I"ALTO	*	*	*	*	*	*	*	*	*I"CANTO	*	*	*	*	*	*	*	*
*mI"Organo	*mI"Organo	*mI"Basso	*	*	*	*	*	*	*	*	*mI"Tenore	*	*	*	*	*	*	*	*	*mI"Alto	*	*	*	*	*	*	*	*	*mI"Soprano	*	*	*	*	*	*	*	*
*I'org	*I'org	*I'B	*	*	*	*	*	*	*	*	*I'T	*	*	*	*	*	*	*	*	*I'A	*	*	*	*	*	*	*	*	*I'S	*	*	*	*	*	*	*	*
*Iorgan	*Iorgan	*Ibass	*	*	*	*	*	*	*	*	*Itenor	*	*	*	*	*	*	*	*	*Ialto	*	*	*	*	*	*	*	*	*Isoprn	*	*	*	*	*	*	*	*
*ICklav	*ICklav	*ICvox	*	*	*	*	*	*	*	*	*ICvox	*	*	*	*	*	*	*	*	*ICvox	*	*	*	*	*	*	*	*	*ICvox	*	*	*	*	*	*	*	*
*	*	*IGcoro	*	*	*	*	*	*	*	*	*IGcoro	*	*	*	*	*	*	*	*	*IGcoro	*	*	*	*	*	*	*	*	*IGcoro	*	*	*	*	*	*	*	*
*clefF4	*clefG2	*clefF4	*	*	*	*	*	*	*	*	*clefC4	*	*	*	*	*	*	*	*	*clefC3	*	*	*	*	*	*	*	*	*clefC1	*	*	*	*	*	*	*	*
*	*	*	*	*	*	*	*	*	*	*	*mclefGv2	*	*	*	*	*	*	*	*	*mclefG2	*	*	*	*	*	*	*	*	*mclefG2	*	*	*	*	*	*	*	*
*k[b-]	*k[b-]	*k[b-]	*	*	*	*	*	*	*	*	*k[b-]	*	*	*	*	*	*	*	*	*k[b-]	*	*	*	*	*	*	*	*	*k[b-]	*	*	*	*	*	*	*	*
*F:	*F:	*F:	*	*	*	*	*	*	*	*	*F:	*	*	*	*	*	*	*	*	*F:	*	*	*	*	*	*	*	*	*F:	*	*	*	*	*	*	*	*
*M4/4	*M4/4	*M4/4	*	*	*	*	*	*	*	*	*M4/4	*	*	*	*	*	*	*	*	*M4/4	*	*	*	*	*	*	*	*	*M4/4	*	*	*	*	*	*	*	*
*met(c)	*met(c)	*met(c)	*	*	*	*	*	*	*	*	*met(c)	*	*	*	*	*	*	*	*	*met(c)	*	*	*	*	*	*	*	*	*met(c)	*	*	*	*	*	*	*	*
*mmet(c)	*mmet(c)	*mmet(c)	*	*	*	*	*	*	*	*	*mmet(c)	*	*	*	*	*	*	*	*	*mmet(c)	*	*	*	*	*	*	*	*	*mmet(c)	*	*	*	*	*	*	*	*
=-	=-	=-	=-	=-	=-	=-	=-	=-	=-	=-	=-	=-	=-	=-	=-	=-	=-	=-	=-	=-	=-	=-	=-	=-	=-	=-	=-	=-	=-	=-	=-	=-	=-	=-	=-	=-	=-
!	!LO:TX:a:B:t=Andante:mod=	!	!	!	!	!	!	!	!	!	!	!	!	!	!	!	!	!	!	!	!	!	!	!	!	!	!	!	!LO:TX:a:B:t=Andante:mod=	!	!	!	!	!	!	!	!
*	*	*	*v:1)	*v:1	*v:2)	*v:2	*v:3)	*v:3	*v:4)	*v:4	*	*v:1)	*v:1	*	*v:2	*	*v:3	*	*v:4	*	*v:1)	*v:1	*	*v:2	*	*v:3	*	*v:4	*	*v:1)	*v:1	*	*v:2	*	*v:3	*	*v:4
4ryy	4ryy	4F\	U-	U-	Za-	Za-	Po-	Po-	Pan	Pan	4A\	U-	U-	.	Za-	.	Po-	.	Pan	4c\	U-	U-	.	Za-	.	Po-	.	Pan	4f/	U-	U-	.	Za-	.	Po-	.	Pan
=1	=1	=1	=1	=1	=1	=1	=1	=1	=1	=1	=1	=1	=1	=1	=1	=1	=1	=1	=1	=1	=1	=1	=1	=1	=1	=1	=1	=1	=1	=1	=1	=1	=1	=1	=1	=1	=1
1F 1FF	1f 1c 1A	4F\	-pa-	-pa-	-brzmiy-	-brzmij-	-wta-	-wta-	wie-	wie-	4A\	-pa-	-pa-	.	-brzmij-	.	-wta-	.	wie-	4c\	-pa-	-pa-	.	-brzmij-	.	-wta-	.	wie-	4f/	-pa-	-pa-	.	-brzmij-	.	-wta-	.	wie-
.	.	4F\	-dniy	-dnij	-cie	-cie	-rzay	-rzaj	-czny	-czny	4A\	-dniy	-dnij	.	-cie	.	-rzaj	.	-czny	4c\	-dniy	-dnij	.	-cie	.	-rzaj	.	-czny	4f/	-dniy	-dnij	.	-cie	.	-rzaj	.	-czny
.	.	4F\	na	na	zna-	z_na-	ludz-	ludz-	za-	za-	4A\	na	na	.	z_na-	.	ludz-	.	za-	4c\	na	na	.	z_na-	.	ludz-	.	za-	4f/	na	na	.	z_na-	.	ludz-	.	za-
.	.	4F\	ko-	ko-	-mi	-mi	-ki	-ki	-wsze	-wsze,	4A\	ko-	ko-	.	-mi	.	-ki	.	-wsze,	4c\	ko-	ko-	.	-mi	.	-ki	.	-wsze,	4f/	ko-	ko-	.	-mi	.	-ki	.	-wsze,
=2	=2	=2	=2	=2	=2	=2	=2	=2	=2	=2	=2	=2	=2	=2	=2	=2	=2	=2	=2	=2	=2	=2	=2	=2	=2	=2	=2	=2	=2	=2	=2	=2	=2	=2	=2	=2	=2
!	!LO:SIC:s=(4.g 4.e 4.B-	!	!	!	!	!	!	!	!	!	!	!	!	!	!	!	!	!	!	!	!	!	!	!	!	!	!	!	!	!	!	!	!	!	!	!	!
2C 2CC/	4.g 4.e 4.B-/	2C^/	-la-	-la-	Nie-	nie-	ro-	ro-	wszę-	wszę-	(4.B-^\	-la-	-la-	.	nie-	.	ro-	.	wszę-	(4.e^\	-la-	-la-	.	nie-	.	ro-	.	wszę-	(4.g^\	-la-	-la-	.	nie-	.	ro-	.	wszę-
!	!LO:SIC:s=8a 8f 8c)	!	!	!	!	!	!	!	!	!	!	!	!	!	!	!	!	!	!	!	!	!	!	!	!	!	!	!	!	!	!	!	!	!	!	!	!
.	8a 8f 8c/	.	.	.	.	.	.	.	.	.	8c\)	.	.	.	.	.	.	.	.	8f\)	.	.	.	.	.	.	.	.	8a\)	.	.	.	.	.	.	.	.
4F 4FF/	4f 4c 4A/	4F\	-na	-na	-ba	-ba	-dzie	-dzie	-dzie	-dzie	4A\	-na	-na	.	-ba	.	-dzie	.	-dzie	4c\	-na	-na	.	-ba	.	-dzie	.	-dzie	4f\	-na	-na	.	-ba	.	-dzie	.	-dzie
4E-X\	4a 4f 4c/	4r	.	.	.	.	.	.	.	.	4r	.	.	.	.	.	.	.	.	4r	.	.	.	.	.	.	.	.	4r	.	.	.	.	.	.	.	.
=3	=3	=3	=3	=3	=3	=3	=3	=3	=3	=3	=3	=3	=3	=3	=3	=3	=3	=3	=3	=3	=3	=3	=3	=3	=3	=3	=3	=3	=3	=3	=3	=3	=3	=3	=3	=3	=3
4D/	4b- 4f 4d/	4D/	Lu-	lu-	Bóg	Bóg	Bo-	Bo-	Ku	ku	4F/	Lu-	lu-	.	Bóg	.	Bo-	.	ku	4f\	Lu-	lu-	.	Bóg	.	Bo-	.	ku	4b-\	Lu-	lu-	.	Bóg	.	Bo-	.	ku
4C/	4a 4f/	4C/	-du	-du	nasz	nasz	-giem	-giem	nam	nam	4F/	-du	-du	.	nasz	.	-giem	.	nam	4f\	-du	-du	.	nasz	.	-giem	.	nam	4a\	-du	-du	.	nasz	.	-giem	.	nam
4BB-/	4dd 4f/	4BB-/	czcią	czcią	nie	nie	prze-	prze-	ła-	ła-	4F/	czcią	czcią	.	nie	.	prze-	.	ła-	4f\	czcią	czcią	.	nie	.	prze-	.	ła-	4dd\	czcią	czcią	.	nie	.	prze-	.	ła-
!	!	!	!	!	!	!	!	!	!	!	!	!	!	!	!	!	!	!	!	!	!	!	!	!	!	!	!	!	!LO:SIC:s=4cc	!	!	!	!	!	!	!	!
4AA/	[4cc 4f/	4AA/	prze-	prze-	po-	po-	-ni-	-nik-	-ską	-ską	4F/	prze-	prze-	.	po-	.	-nik-	.	-ską	4f\	prze-	prze-	.	po-	.	-nik-	.	-ską	(4cc\	prze-	prze-	.	po-	.	-nik-	.	-ską
=4	=4	=4	=4	=4	=4	=4	=4	=4	=4	=4	=4	=4	=4	=4	=4	=4	=4	=4	=4	=4	=4	=4	=4	=4	=4	=4	=4	=4	=4	=4	=4	=4	=4	=4	=4	=4	=4
*	*^	*	*	*	*	*	*	*	*	*	*	*	*	*	*	*	*	*	*	*	*	*	*	*	*	*	*	*	*	*	*	*	*	*	*	*	*
!	!	!	!LO:SIC:s=(4GG	!	!	!	!	!	!	!	!	!	!	!	!	!	!	!	!	!	!	!	!	!	!	!	!	!	!	!LO:SIC:s=(4cc	!	!	!	!	!	!	!	!
4GG/	4cc/]	4f 4d\	4GG/	-ię-	-ję-	-ię-	-ję-	-knię-	-nię-	z dię-	zdję-	(<2G/	-ię-	-ję-	.	-ję-	.	-nię-	.	zdję-	(4d\	-ię-	-ję-	.	-ję-	.	-nię-	.	zdję-	4cc\	-ię-	-ję-	.	-ję-	.	-nię-	.	zdję-
!	!	!	!LO:SIC:s=4C)	!	!	!	!	!	!	!	!	!	!	!	!	!	!	!	!	!	!	!	!	!	!	!	!	!	!	!	!	!	!	!	!	!	!	!
4C/	4b-/	4g 4e\	4C/	.	.	.	.	.	.	.	.	.	.	.	.	.	.	.	.	.	4e\)	.	.	.	.	.	.	.	.	4b-\)	.	.	.	.	.	.	.	.
4FF/	4a 4f/	2ryyyy	4FF/	-ty	-ty,	-ty	-ty,	-ty	-ty,	-ty	-ty,	4A/)	-ty	-ty,	.	-ty,	.	-ty,	.	-ty,	4f\	-ty	-ty,	.	-ty,	.	-ty,	.	-ty,	4a\	-ty	-ty,	.	-ty,	.	-ty,	.	-ty,
4r	4r	.	4D\	U-	u-	W_po-	w_po-	Na	na	Niech	niech	4F/	U-	u-	.	w_po-	.	na	.	niech	4f\	U-	u-	.	w_po-	.	na	.	niech	4a\	U-	u-	.	w_po-	.	na	.	niech
=5	=5	=5	=5	=5	=5	=5	=5	=5	=5	=5	=5	=5	=5	=5	=5	=5	=5	=5	=5	=5	=5	=5	=5	=5	=5	=5	=5	=5	=5	=5	=5	=5	=5	=5	=5	=5	=5	=5
2D\	2a/	2f\	4D\	-wiel-	-wiel-	-sta-	-sta-	wscho-	wscho-	wie-	wie-	4F/	-wiel-	-wiel-	.	-sta-	.	wscho-	.	wie-	4f\	-wiel-	-wiel-	.	-sta-	.	wscho-	.	wie-	4a\	-wiel-	-wiel-	.	-sta-	.	wscho-	.	wie-
.	.	.	4D\	-biay	-biaj	-ci	-ci	-dzie	-dzie	-cznie	-cznie	4F/	-biay	-biaj	.	-ci	.	-dzie	.	-cznie	4f\	-biay	-biaj	.	-ci	.	-dzie	.	-cznie	4a\	-biay	-biaj	.	-ci	.	-dzie	.	-cznie
2C#X\	2a/	2g 2e\	4C#X/	twe-	Twe-	przy-	przy-	i	i	wiel-	wiel-	4G/	twe-	Twe-	.	przy-	.	i	.	wiel-	4e\	twe-	Twe-	.	przy-	.	i	.	wiel-	4a\	twe-	Twe-	.	przy-	.	i	.	wiel-
.	.	.	4C#/	-go	-go	-szedł	-szedł	Za-	za-	-bion	-bion	4G/	-go	-go	.	-szedł	.	za-	.	-bion	4e\	-go	-go	.	-szedł	.	za-	.	-bion	4a\	-go	-go	.	-szedł	.	za-	.	-bion
*	*v	*v	*	*	*	*	*	*	*	*	*	*	*	*	*	*	*	*	*	*	*	*	*	*	*	*	*	*	*	*	*	*	*	*	*	*	*	*
=6	=6	=6	=6	=6	=6	=6	=6	=6	=6	=6	=6	=6	=6	=6	=6	=6	=6	=6	=6	=6	=6	=6	=6	=6	=6	=6	=6	=6	=6	=6	=6	=6	=6	=6	=6	=6	=6
!LO:SIC:s=2Cn	!	!	!	!	!	!	!	!	!	!	!	!	!	!	!	!	!	!	!	!	!	!	!	!	!	!	!	!	!	!	!	!	!	!	!	!	!
2C\	2b- 2g 2e^/>	2Cn^\	Pa-	Pa-	chle-	chle-	-cho-	-cho-	bę-	bę-	2G^/>	Pa-	Pa-	.	chle-	.	-cho-	.	bę-	2e^\	Pa-	Pa-	.	chle-	.	-cho-	.	bę-	(4.b-^\	Pa-	Pa-	.	chle-	.	-cho-	.	bę-
.	.	.	.	.	.	.	.	.	.	.	.	.	.	.	.	.	.	.	.	.	.	.	.	.	.	.	.	.	8cc\)	.	.	.	.	.	.	.	.
4F\	8a 8f\	4F\	-na	-na:	-ba	-ba:	-dzie	-dzie:	-dzie	-dzie:	4F/	-na	-na:	.	-ba:	.	-dzie:	.	-dzie:	4f\	-na	-na:	.	-ba:	.	-dzie:	.	-dzie:	4a\	-na	-na:	.	-ba:	.	-dzie:	.	-dzie:
.	8aL 8f\	.	.	.	.	.	.	.	.	.	.	.	.	.	.	.	.	.	.	.	.	.	.	.	.	.	.	.	.	.	.	.	.	.	.	.	.
4r	8b- 8g\	4r	.	.	.	.	.	.	.	.	4r	.	.	.	.	.	.	.	.	4r	.	.	.	.	.	.	.	.	4r	.	.	.	.	.	.	.	.
.	8ccJ 8a\	.	.	.	.	.	.	.	.	.	.	.	.	.	.	.	.	.	.	.	.	.	.	.	.	.	.	.	.	.	.	.	.	.	.	.	.
!!LO:PB:g=original
=7	=7	=7	=7	=7	=7	=7	=7	=7	=7	=7	=7	=7	=7	=7	=7	=7	=7	=7	=7	=7	=7	=7	=7	=7	=7	=7	=7	=7	=7	=7	=7	=7	=7	=7	=7	=7	=7
*	*^	*	*	*	*	*	*	*	*	*	*^	*	*	*	*	*	*	*	*	*	*	*	*	*	*	*	*	*	*	*	*	*	*	*	*	*	*
!	!LO:SIC:s=[4dd;	!LO:N:vis=8	!LO:SIC:s=4BB-;	!	!	!	!	!	!	!	!	!LO:SIC:s=4d;	!LO:SIC:s=4B-;	!	!	!	!	!	!	!	!	!	!	!	!	!	!	!	!	!	!	!	!	!	!	!	!	!	!
4BB-;</	[4dd/	8.f\L	4BB-/	Swię-	Świę-	Swię-	.	Swię-	.	Swię-	.	4d/	4B-\	Swię-	Świę-	.	.	.	.	.	.	8.f;\L	Swię-	Świę-	.	.	.	.	.	.	4dd;\	Swię-	Świę-	.	.	.	.	.	.
!	!	!	!	!	!	!	!	!	!	!	!	!	!	!	!	!	!	!	!	!	!	!LO:SIC:v:s=16f#Jk	!	!	!	!	!	!	!	!	!	!	!	!	!	!	!	!	!
.	.	16f#X\Jk	.	.	.	.	.	.	.	.	.	.	.	.	.	.	.	.	.	.	.	16f\Jk	-ty	.	.	.	.	.	.	.	.	.	.	.	.	.	.	.	.
8BB-/	8dd] 8g/	4ryyyy	8BB-/	-ty	-ty	-ty	.	-ty	.	-ty	.	8d/	8B-\	-ty	-ty	.	.	.	.	.	.	8g\	.	-ty	.	.	.	.	.	.	8dd\	-ty	-ty	.	.	.	.	.	.
8r	8r	.	8r	.	.	.	.	.	.	.	.	8r	8ryy	.	.	.	.	.	.	.	.	8r	.	.	.	.	.	.	.	.	8r	.	.	.	.	.	.	.	.
!	!LO:SIC:s=4ee 4cc 4b- 4g;	!	!LO:SIC:s=4C;	!	!	!	!	!	!	!	!	!LO:SIC:s=4c;	!LO:SIC:s=4B-;	!	!	!	!	!	!	!	!	!LO:SIC:s=4g;	!	!	!	!	!	!	!	!	!	!	!	!	!	!	!	!	!
4C;</	4ee 4cc 4b- 4g/	2ryyyy	4C/	Swię-	Świę-	Swię-	.	Swię-	.	Swię-	.	4c/	4B-\	Swię-	Świę-	.	.	.	.	.	.	4g\	Swię-	Świę-	.	.	.	.	.	.	4ee;\	Swię-	Świę-	.	.	.	.	.	.
8C/	8ee 8cc 8b- 8g/	.	8C/	-ty	-ty,	-ty	.	-ty	.	-ty	.	8c/	8B-\	-ty	-ty,	.	.	.	.	.	.	8g\	-ty	-ty,	.	.	.	.	.	.	8ee\	-ty	-ty,	.	.	.	.	.	.
8r	8r	.	8r	.	.	.	.	.	.	.	.	8r	8ryy	.	.	.	.	.	.	.	.	8r	.	.	.	.	.	.	.	.	8r	.	.	.	.	.	.	.	.
*	*v	*v	*	*	*	*	*	*	*	*	*	*	*	*	*	*	*	*	*	*	*	*	*	*	*	*	*	*	*	*	*	*	*	*	*	*	*	*	*
=	=	=	=	=	=	=	=	=	=	=	=	=	=	=	=	=	=	=	=	=	=	=	=	=	=	=	=	=	=	=	=	=	=	=	=	=	=	=
!LO:TX:b:t=P:problem=fermata pod calym taktem	!LO:TX:a:t=P:problem=fermata nad calym taktem	!LO:TX:a:t=P:problem=fermata nad calym taktem	!	!	!	!	!	!	!	!	!LO:SIC:s=2c;	!LO:SIC:s=2A;	!	!	!	!	!	!	!	!	!LO:SIC:s=2f;	!	!	!	!	!	!	!	!	!LO:TX:a:t=P:problem=fermata nad calym taktem	!	!	!	!	!	!	!	!
2F 2FF;</	2ff 2cc 2a;\	2F 2FF;/	Swię-	Świę-	Swię-	.	Swię-	.	Swię-	.	2c/	2A\	Swię-	Świę-	.	.	.	.	.	.	2f\	Swię-	Świę-	.	.	.	.	.	.	2ff;\	Swię-	Świę-	.	.	.	.	.	.
!LO:SIC:s=4F 4FF;	!LO:SIC:s=4ff 4cc 4a;	!LO:SIC:s=4F 4FF;	!	!	!	!	!	!	!	!	!LO:SIC:s=4c;	!LO:SIC:s=4A;	!	!	!	!	!	!	!	!	!LO:SIC:s=4f;	!	!	!	!	!	!	!	!	!LO:SIC:s=4ff;	!	!	!	!	!	!	!	!
4F 4FF/	4ff 4cc 4a\	4F 4FF/	-ty	-ty.	-ty	.	-ty	.	-ty	.	4c/	4A\	-ty	-ty.	.	.	.	.	.	.	4f\	-ty	-ty.	.	.	.	.	.	.	4ff\	-ty	-ty.	.	.	.	.	.	.
!LO:MO:mod=*clefG2	!	!	!	!	!	!	!	!	!	!	!	!	!	!	!	!	!	!	!	!	!	!	!	!	!	!	!	!	!	!	!	!	!	!	!	!	!	!
*null	*	*	*	*	*	*	*	*	*	*	*	*	*	*	*	*	*	*	*	*	*	*	*	*	*	*	*	*	*	*	*	*	*	*	*	*	*	*
*	*	*	*	*	*	*	*	*	*	*	*v	*v	*	*	*	*	*	*	*	*	*	*	*	*	*	*	*	*	*	*	*	*	*	*	*	*	*	*
!LO:MO:mod==8||	!LO:MO:mod==8||	!LO:MO:mod==8||	!LO:MO:mod==8||	!LO:MO:mod==8||	!LO:MO:mod==8||	!LO:MO:mod==8||	!LO:MO:mod==8||	!LO:MO:mod==8||	!LO:MO:mod==8||	!LO:MO:mod==8||	!LO:MO:mod==8||	!LO:MO:mod==8||	!LO:MO:mod==8||	!	!LO:MO:mod==8||	!	!LO:MO:mod==8||	!	!LO:MO:mod==8||	!LO:MO:mod==8||	!LO:MO:mod==8||	!LO:MO:mod==8||	!	!LO:MO:mod==8||	!	!LO:MO:mod==8||	!	!LO:MO:mod==8||	!LO:MO:mod==8||	!LO:MO:mod==8||	!LO:MO:mod==8||	!	!LO:MO:mod==8||	!	!LO:MO:mod==8||	!	!LO:MO:mod==8||
=8|!	=8|!	=8|!	=8|!	=8|!	=8|!	=8|!	=8|!	=8|!	=8|!	=8|!	=8|!	=8|!	=8|!	=8|!	=8|!	=8|!	=8|!	=8|!	=8|!	=8|!	=8|!	=8|!	=8|!	=8|!	=8|!	=8|!	=8|!	=8|!	=8|!	=8|!	=8|!	=8|!	=8|!	=8|!	=8|!	=8|!	=8|!
*	*^	*	*	*	*	*	*	*	*	*	*	*	*	*	*	*	*	*	*	*	*	*	*	*	*	*	*	*	*	*	*	*	*	*	*	*	*
!LO:MO:mod=*null:null	!	!	!	!	!	!	!	!	!	!	!	!	!	!	!	!	!	!	!	!	!	!	!	!	!	!	!	!	!	!	!	!	!	!	!	!	!	!
*clefG2	*	*	*	*	*	*	*	*	*	*	*	*	*	*	*	*	*	*	*	*	*	*	*	*	*	*	*	*	*	*	*	*	*	*	*	*	*	*
!	!LO:TX:a:B:t=Preludium	!	!	!	!	!	!	!	!	!	!	!	!	!	!	!	!	!	!	!	!	!	!	!	!	!	!	!	!	!	!	!	!	!	!	!	!	!
4a/	4ff/	4cc\	4ryyyy	.	.	.	.	.	.	.	.	4ryyyy	.	.	.	.	.	.	.	.	4ryyyy	.	.	.	.	.	.	.	.	4ryyyy	.	.	.	.	.	.	.	.
=9	=9	=9	=9	=9	=9	=9	=9	=9	=9	=9	=9	=9	=9	=9	=9	=9	=9	=9	=9	=9	=9	=9	=9	=9	=9	=9	=9	=9	=9	=9	=9	=9	=9	=9	=9	=9	=9	=9
4b-/	(2.ff/	4dd\	1ryyyy	.	.	.	.	.	.	.	.	1ryyyy	.	.	.	.	.	.	.	.	1ryyyy	.	.	.	.	.	.	.	.	1ryyyy	.	.	.	.	.	.	.	.
4a/	.	4cc\	.	.	.	.	.	.	.	.	.	.	.	.	.	.	.	.	.	.	.	.	.	.	.	.	.	.	.	.	.	.	.	.	.	.	.	.
2g/	.	2b-\	.	.	.	.	.	.	.	.	.	.	.	.	.	.	.	.	.	.	.	.	.	.	.	.	.	.	.	.	.	.	.	.	.	.	.	.
!	!LO:SIC:s=4ee)	!	!	!	!	!	!	!	!	!	!	!	!	!	!	!	!	!	!	!	!	!	!	!	!	!	!	!	!	!	!	!	!	!	!	!	!	!
.	4een/)	.	.	.	.	.	.	.	.	.	.	.	.	.	.	.	.	.	.	.	.	.	.	.	.	.	.	.	.	.	.	.	.	.	.	.	.	.
=10	=10	=10	=10	=10	=10	=10	=10	=10	=10	=10	=10	=10	=10	=10	=10	=10	=10	=10	=10	=10	=10	=10	=10	=10	=10	=10	=10	=10	=10	=10	=10	=10	=10	=10	=10	=10	=10	=10
(4f/	4ff/	4a\	1ryyyy	.	.	.	.	.	.	.	.	1ryyyy	.	.	.	.	.	.	.	.	1ryyyy	.	.	.	.	.	.	.	.	1ryyyy	.	.	.	.	.	.	.	.
4a/	4ee-X/	4cc\	.	.	.	.	.	.	.	.	.	.	.	.	.	.	.	.	.	.	.	.	.	.	.	.	.	.	.	.	.	.	.	.	.	.	.	.
4b-/)	4dd/	4dd\	.	.	.	.	.	.	.	.	.	.	.	.	.	.	.	.	.	.	.	.	.	.	.	.	.	.	.	.	.	.	.	.	.	.	.	.
4g/	4ee-/	4b-\	.	.	.	.	.	.	.	.	.	.	.	.	.	.	.	.	.	.	.	.	.	.	.	.	.	.	.	.	.	.	.	.	.	.	.	.
=11	=11	=11	=11	=11	=11	=11	=11	=11	=11	=11	=11	=11	=11	=11	=11	=11	=11	=11	=11	=11	=11	=11	=11	=11	=11	=11	=11	=11	=11	=11	=11	=11	=11	=11	=11	=11	=11	=11
4g-X/	4een/	4dd-X [4b-\	1ryyyy	.	.	.	.	.	.	.	.	1ryyyy	.	.	.	.	.	.	.	.	1ryyyy	.	.	.	.	.	.	.	.	1ryyyy	.	.	.	.	.	.	.	.
4f/	[4ff/	4ddn 4b-\]	.	.	.	.	.	.	.	.	.	.	.	.	.	.	.	.	.	.	.	.	.	.	.	.	.	.	.	.	.	.	.	.	.	.	.	.
4e-X/	4ff/]	4cc 4a\	.	.	.	.	.	.	.	.	.	.	.	.	.	.	.	.	.	.	.	.	.	.	.	.	.	.	.	.	.	.	.	.	.	.	.	.
4d/	4ff/	4b-\	.	.	.	.	.	.	.	.	.	.	.	.	.	.	.	.	.	.	.	.	.	.	.	.	.	.	.	.	.	.	.	.	.	.	.	.
=12	=12	=12	=12	=12	=12	=12	=12	=12	=12	=12	=12	=12	=12	=12	=12	=12	=12	=12	=12	=12	=12	=12	=12	=12	=12	=12	=12	=12	=12	=12	=12	=12	=12	=12	=12	=12	=12	=12
!LO:SIC:v:s=4e-	!	!	!	!	!	!	!	!	!	!	!	!	!	!	!	!	!	!	!	!	!	!	!	!	!	!	!	!	!	!	!	!	!	!	!	!	!	!
4e/	4gg/	2b-\	1ryyyy	.	.	.	.	.	.	.	.	1ryyyy	.	.	.	.	.	.	.	.	1ryyyy	.	.	.	.	.	.	.	.	1ryyyy	.	.	.	.	.	.	.	.
4d/	4ff/	.	.	.	.	.	.	.	.	.	.	.	.	.	.	.	.	.	.	.	.	.	.	.	.	.	.	.	.	.	.	.	.	.	.	.	.	.
4c#X/	4een/	4b-\	.	.	.	.	.	.	.	.	.	.	.	.	.	.	.	.	.	.	.	.	.	.	.	.	.	.	.	.	.	.	.	.	.	.	.	.
4cn/	4ee-X/	4a 4f\	.	.	.	.	.	.	.	.	.	.	.	.	.	.	.	.	.	.	.	.	.	.	.	.	.	.	.	.	.	.	.	.	.	.	.	.
*clefF4	*	*	*	*	*	*	*	*	*	*	*	*	*	*	*	*	*	*	*	*	*	*	*	*	*	*	*	*	*	*	*	*	*	*	*	*	*	*
=13	=13	=13	=13	=13	=13	=13	=13	=13	=13	=13	=13	=13	=13	=13	=13	=13	=13	=13	=13	=13	=13	=13	=13	=13	=13	=13	=13	=13	=13	=13	=13	=13	=13	=13	=13	=13	=13	=13
4B-\	2dd 2b-/	2f\	1ryyyy	.	.	.	.	.	.	.	.	1ryyyy	.	.	.	.	.	.	.	.	1ryyyy	.	.	.	.	.	.	.	.	1ryyyy	.	.	.	.	.	.	.	.
4A\	.	.	.	.	.	.	.	.	.	.	.	.	.	.	.	.	.	.	.	.	.	.	.	.	.	.	.	.	.	.	.	.	.	.	.	.	.	.
4G\	2dd 2b-/	2g\	.	.	.	.	.	.	.	.	.	.	.	.	.	.	.	.	.	.	.	.	.	.	.	.	.	.	.	.	.	.	.	.	.	.	.	.
4F\	.	.	.	.	.	.	.	.	.	.	.	.	.	.	.	.	.	.	.	.	.	.	.	.	.	.	.	.	.	.	.	.	.	.	.	.	.	.
=14	=14	=14	=14	=14	=14	=14	=14	=14	=14	=14	=14	=14	=14	=14	=14	=14	=14	=14	=14	=14	=14	=14	=14	=14	=14	=14	=14	=14	=14	=14	=14	=14	=14	=14	=14	=14	=14	=14
4E-X\	1cc	1b- 1g	1ryyyy	.	.	.	.	.	.	.	.	1ryyyy	.	.	.	.	.	.	.	.	1ryyyy	.	.	.	.	.	.	.	.	1ryyyy	.	.	.	.	.	.	.	.
4D\	.	.	.	.	.	.	.	.	.	.	.	.	.	.	.	.	.	.	.	.	.	.	.	.	.	.	.	.	.	.	.	.	.	.	.	.	.	.
4C\	.	.	.	.	.	.	.	.	.	.	.	.	.	.	.	.	.	.	.	.	.	.	.	.	.	.	.	.	.	.	.	.	.	.	.	.	.	.
8D\L	.	.	.	.	.	.	.	.	.	.	.	.	.	.	.	.	.	.	.	.	.	.	.	.	.	.	.	.	.	.	.	.	.	.	.	.	.	.
8E-\J	.	.	.	.	.	.	.	.	.	.	.	.	.	.	.	.	.	.	.	.	.	.	.	.	.	.	.	.	.	.	.	.	.	.	.	.	.	.
=15	=15	=15	=15	=15	=15	=15	=15	=15	=15	=15	=15	=15	=15	=15	=15	=15	=15	=15	=15	=15	=15	=15	=15	=15	=15	=15	=15	=15	=15	=15	=15	=15	=15	=15	=15	=15	=15	=15
*	*	*^	*	*	*	*	*	*	*	*	*	*	*	*	*	*	*	*	*	*	*	*	*	*	*	*	*	*	*	*	*	*	*	*	*	*	*	*
1F	1cc	2.f\	2b-\	1ryyyy	.	.	.	.	.	.	.	.	1ryyyy	.	.	.	.	.	.	.	.	1ryyyy	.	.	.	.	.	.	.	.	1ryyyy	.	.	.	.	.	.	.	.
.	.	.	2a\	.	.	.	.	.	.	.	.	.	.	.	.	.	.	.	.	.	.	.	.	.	.	.	.	.	.	.	.	.	.	.	.	.	.	.	.
.	.	4e-X\	.	.	.	.	.	.	.	.	.	.	.	.	.	.	.	.	.	.	.	.	.	.	.	.	.	.	.	.	.	.	.	.	.	.	.	.	.
*	*v	*v	*v	*	*	*	*	*	*	*	*	*	*	*	*	*	*	*	*	*	*	*	*	*	*	*	*	*	*	*	*	*	*	*	*	*	*	*	*
=16	=16	=16	=16	=16	=16	=16	=16	=16	=16	=16	=16	=16	=16	=16	=16	=16	=16	=16	=16	=16	=16	=16	=16	=16	=16	=16	=16	=16	=16	=16	=16	=16	=16	=16	=16	=16	=16
2.BB-/	2.b- 2.f 2.d/	2.ryyyy	.	.	.	.	.	.	.	.	2.ryyyy	.	.	.	.	.	.	.	.	2.ryyyy	.	.	.	.	.	.	.	.	2.ryyyy	.	.	.	.	.	.	.	.
==	==	==	==	==	==	==	==	==	==	==	==	==	==	==	==	==	==	==	==	==	==	==	==	==	==	==	==	==	==	==	==	==	==	==	==	==	==
*-	*-	*-	*-	*-	*-	*-	*-	*-	*-	*-	*-	*-	*-	*-	*-	*-	*-	*-	*-	*-	*-	*-	*-	*-	*-	*-	*-	*-	*-	*-	*-	*-	*-	*-	*-	*-	*-
!!!system-decoration: [vox]{(klav)}
!!!RDF**kern: > = above
!!!RDF**kern: < = below
!!!ENC: Andrzej Borzym
!!!END: 2020-03-02
!!!ENC: Marta Lawrence
!!!END: 2020-04-02
!!!ENC-modern: Andrzej Kubiczek
!!!END-modern: 2022-12-04
!!!filter-modern: shed -e "s/LO:N:/LO:n:$1/L" | shed -e "s/TX(.*):t=P:/tx$1:t=P:/LG" | shed -k -e "s/([^a-gA-Gn#X-])[<>]/$1/g" | sic -sq | modori -m | autostem -r | shed -e "s/yy//
!!!YEC: Copyright 2022 Narodowy Instytut Fryderyka Chopina (https://polishscores.org)
!!!YEM: License CC-BY-4.0 (https://creativecommons.org/licenses/by/4.0)
